**kern	**kern	**dynam
*part1	*part1	*part1
*staff2	*staff1	*
*I"Piano	*	*
*clefG2	*clefG2	*
*k[]	*k[]	*
*M6/8	*M6/8	*
=1	=1	=1
!	!	!LO:DY:a
4.B 4.f#X 4.b	4.dd#X 4.ff#X 4.bb 4.ddd#X	pp
4.A 4.c#X 4.e 4.a	4.ee 4.aa 4.ccc#X 4.eee	.
=	=	=
4.G 4.B 4.dn 4.g	4.gg 4.bb 4.dddn 4.ggg	.
4.A 4.c#X 4.e 4.a	4.ee 4.aa 4.ccc#X 4.eee	.
=	=	=
*	*^	*
4.F#X 4.c#X 4.a#X	4.aa#X 4.ccc#X 4.fff#X	4.ff#X	.
*	*v	*v	*
4.B 4.f#X 4.b	4.ff# 4.bb 4.ddd#X 4.fff#	.
=	=	=
*^	*	*
16%3cc#XL	4.f#X	4.ff#X 4.bb 4.ccc#X 4.fff#X	.
16%3g#XJ	.	.	.
*v	*v	*	*
4.f# 4.a#X 4.cc#	4.ff# 4.ccc# 4.fff#	.
=	=	=
4.B 4.f#X 4.b	4.dd#X 4.ff#X 4.bb 4.ddd#X	.
4.An 4.c#X 4.e 4.a	4.ee 4.aa 4.ccc#X 4.eee	.
=	=	=
4.G 4.B 4.dn 4.g	4.gg 4.bb 4.dddn 4.ggg	.
4.A 4.c#X 4.e 4.a	4.ee 4.aa 4.ccc#X 4.eee	.
=	=	=
4.F#X 4.c#X 4.a#X	4.ff#X 4.ccc#X 4.fff#X	.
4.B 4.f#X 4.b	4.ff# 4.bb 4.ddd#X 4.fff#	.
=	=	=
2.e-X 2.b-X 2.ee-X	2.gg 2.bb-X 2.eee-X 2.ggg	.
=||	=||	=||
*-	*-	*-
!!!system-decoration: {(s1,s2)}
